X:11837
T:No alto del puertu (CT 033)
C:Tradicional
S:Música Tradicional Asturiana, (C) Tello & Tito. Asturies, 2001.
S:http://pagina.de/MusTradAst <telloytito@asturies.org>
N:Canción de empleo indeterminado, transcrita en Cabañaquinta, ayuntamiento de Ayer.
O:Cabañaquinta (Ayer)
A:Asturies
Z:Cancioneru de Torner 033
M:3/4
L:1/8
Q:1/4=120
W:En lo alto del puerto
W:llora un cabrero, sí,
W:que se le murió un chivo
W:del mal postrero.
W:Sí, cara, caracol, caracol.
K:C
G/G/|c2 cB cB|d2 cB AG|B4 z G/G/|c2 cB cB|d2 cB AG|B2 c/d/c/B/ AA/B/|G4||


